suite-common/icons/assets/icons/github.svg

<svg xmlns="http://www.w3.org/2000/svg" xml:space="preserve" viewBox="0 0 438.549 438.549">
  <path fill-rule="evenodd" d="M206.849 5.916C167.244 7.794 131.73 19.601 97.391 42.309 48.034 74.947 12.974 128.596 3.237 186.383c-8.876 52.681.614 105.428 26.867 149.336 22.048 36.873 53.732 66.619 90.132 84.616 12.196 6.031 27.266 12.081 31.988 12.844 3.973.641 8.516-1.309 10.77-4.624l1.827-2.687.214-22.263.213-22.262-2.09.418c-7.425 1.485-16.075 2.116-23.553 1.717-16.18-.861-25.755-3.411-34.103-9.079-7.627-5.18-11.146-9.968-15.968-21.728-2.913-7.104-8.565-16.237-13.422-21.689-1.672-1.877-5.271-4.883-7.999-6.68-12.858-8.471-12.64-15.118.46-14.005 12.681 1.078 24.516 9.305 33.613 23.366 8.553 13.219 18.13 20.392 29.924 22.413 6.859 1.175 18.138-.004 26.51-2.771 6.613-2.185 6.482-2.027 8.318-10.026 1.503-6.547 5.048-13.642 9.028-18.069 3.714-4.131 4.596-3.552-8.221-5.396-15.82-2.277-30.46-7.006-43.225-13.961-23.884-13.015-37.173-33.504-43.12-66.478-1.03-5.714-1.314-11.058-1.299-24.486.018-16.298.119-17.55 1.98-24.486 2.565-9.559 9.382-23.236 15.12-30.333 3.077-3.805 4.325-5.929 4.081-6.943-.193-.804-1.065-3.929-1.937-6.944-1.327-4.584-1.591-7.398-1.612-17.177-.023-10.765.153-12.373 2.223-20.237 3.345-12.709 3.277-12.609 8.881-12.874 5.786-.273 9.833.574 18.917 3.958 10.234 3.813 21.21 9.113 29.564 14.275l7.274 4.496 8.52-1.955c18.807-4.317 41.204-6.088 61.397-4.854 14.313.874 18.619 1.509 30.64 4.519l8.964 2.244 7.912-4.822c9.404-5.732 22.074-11.88 31.172-15.126 5.622-2.006 7.641-2.36 13.887-2.431l7.31-.084 2.016 6.013c5.686 16.956 6.335 33.148 1.903 47.497l-1.453 4.705 2.056 2.6c10.991 13.897 16.53 25.949 18.951 41.236 1.599 10.091 1.077 31.017-1.074 43.117-4.65 26.156-15.108 44.775-32.402 57.688-6.968 5.203-20.675 12.239-29.723 15.257-6.617 2.207-20.768 5.349-28.249 6.273-7.632.941-7.423.7-3.984 4.598 3.673 4.162 7.334 11.259 9.133 17.7 1.177 4.215 1.373 9.122 1.743 43.49.398 37.017.482 38.848 1.878 41.22 3.885 6.594 8.715 7.123 21.562 2.361 12.075-4.475 31.842-14.409 42.028-21.121 33.462-22.051 60.739-53.072 78.235-88.974 13.661-28.034 20.323-55.792 21.311-88.806 2.285-76.295-34.031-146.503-97.719-188.916-40.273-26.82-83.565-38.517-133.757-36.137"/>
</svg>

<svg xmlns="http://www.w3.org/2000/svg" xml:space="preserve" viewBox="0 0 438.549 438.549"><path d="M206.849 5.916 C 167.244 7.794,131.730 19.601,97.391 42.309 C 48.034 74.947,12.974 128.596,3.237 186.383 C -5.639 239.064,3.851 291.811,30.104 335.719 C 52.152 372.592,83.836 402.338,120.236 420.335 C 132.432 426.366,147.502 432.416,152.224 433.179 C 156.197 433.820,160.740 431.870,162.994 428.555 L 164.821 425.868 165.035 403.605 L 165.248 381.343 163.158 381.761 C 155.733 383.246,147.083 383.877,139.605 383.478 C 123.425 382.617,113.850 380.067,105.502 374.399 C 97.875 369.219,94.356 364.431,89.534 352.671 C 86.621 345.567,80.969 336.434,76.112 330.982 C 74.440 329.105,70.841 326.099,68.113 324.302 C 55.255 315.831,55.473 309.184,68.573 310.297 C 81.254 311.375,93.089 319.602,102.186 333.663 C 110.739 346.882,120.316 354.055,132.110 356.076 C 138.969 357.251,150.248 356.072,158.620 353.305 C 165.233 351.120,165.102 351.278,166.938 343.279 C 168.441 336.732,171.986 329.637,175.966 325.210 C 179.680 321.079,180.562 321.658,167.745 319.814 C 151.925 317.537,137.285 312.808,124.520 305.853 C 100.636 292.838,87.347 272.349,81.400 239.375 C 80.370 233.661,80.086 228.317,80.101 214.889 C 80.119 198.591,80.220 197.339,82.081 190.403 C 84.646 180.844,91.463 167.167,97.201 160.070 C 100.278 156.265,101.526 154.141,101.282 153.127 C 101.089 152.323,100.217 149.198,99.345 146.183 C 98.018 141.599,97.754 138.785,97.733 129.006 C 97.710 118.241,97.886 116.633,99.956 108.769 C 103.301 96.060,103.233 96.160,108.837 95.895 C 114.623 95.622,118.670 96.469,127.754 99.853 C 137.988 103.666,148.964 108.966,157.318 114.128 L 164.592 118.624 173.112 116.669 C 191.919 112.352,214.316 110.581,234.509 111.815 C 248.822 112.689,253.128 113.324,265.149 116.334 L 274.113 118.578 282.025 113.756 C 291.429 108.024,304.099 101.876,313.197 98.630 C 318.819 96.624,320.838 96.270,327.084 96.199 L 334.394 96.115 336.410 102.128 C 342.096 119.084,342.745 135.276,338.313 149.625 L 336.860 154.330 338.916 156.930 C 349.907 170.827,355.446 182.879,357.867 198.166 C 359.466 208.257,358.944 229.183,356.793 241.283 C 352.143 267.439,341.685 286.058,324.391 298.971 C 317.423 304.174,303.716 311.210,294.668 314.228 C 288.051 316.435,273.900 319.577,266.419 320.501 C 258.787 321.442,258.996 321.201,262.435 325.099 C 266.108 329.261,269.769 336.358,271.568 342.799 C 272.745 347.014,272.941 351.921,273.311 386.289 C 273.709 423.306,273.793 425.137,275.189 427.509 C 279.074 434.103,283.904 434.632,296.751 429.870 C 308.826 425.395,328.593 415.461,338.779 408.749 C 372.241 386.698,399.518 355.677,417.014 319.775 C 430.675 291.741,437.337 263.983,438.325 230.969 C 440.610 154.674,404.294 84.466,340.606 42.053 C 300.333 15.233,257.041 3.536,206.849 5.916 " stroke="none" fill-rule="evenodd" fill="black"></path></svg>
